Obsidian-SemiLight/actions/16s/format-font-size-less.svg

<svg viewBox="0 0 16 16" xmlns="http://www.w3.org/2000/svg"><path d="m6.3828125 2-4.3828125 11h1.3574219l1.1894531-3h4.453125.4746094 1.3652346l-3.0917971-8zm.6796875 1.328125c.11316.37608.711475 2.0819644 1.796875 5.1152344l.2246094.5566406h-4.1425782zm4.9375 5.671875v3.09375l-2-2v1.40625l2.28125 2.3125.21875.1875.21875-.1875 2.28125-2.3125v-1.40625l-2 2v-3.09375z" fill="#4d4d4d"/></svg>

<svg xmlns="http://www.w3.org/2000/svg" viewBox="0 0 16 16">
  <defs id="defs3051">
    <style type="text/css" id="current-color-scheme">
      .ColorScheme-Text {
        color:#4d4d4d;
      }
      </style>
  </defs>
 <path style="fill:currentColor;fill-opacity:1;stroke:none" 
       d="M 6.3828125 2 L 2 13 L 3.3574219 13 L 4.546875 10 L 9 10 L 9.4746094 10 L 10.839844 10 L 7.7480469 2 L 6.3828125 2 z M 7.0625 3.328125 C 7.17566 3.704205 7.773975 5.4100894 8.859375 8.4433594 L 9.0839844 9 L 4.9414062 9 L 7.0625 3.328125 z M 12 9 L 12 12.09375 L 10 10.09375 L 10 11.5 L 12.28125 13.8125 L 12.5 14 L 12.71875 13.8125 L 15 11.5 L 15 10.09375 L 13 12.09375 L 13 9 L 12 9 z "
     class="ColorScheme-Text"
     />
</svg>
